**kern	**kern	**dynam
*part1	*part1	*part1
*staff2	*staff1	*
*I"Piano	*	*
*clefF4	*clefG2	*
*k[b-e-a-d-]	*k[b-e-a-d-]	*
=1	=1	=1
[4.AAA- [4.AA-	8c 8e- 8a-	.
.	8cL	.
.	8e-J	<
=	=	=
8AAA-] 8AA-]	8a-L	.
8r	8A- 8c 8e-	.
8r	8cJ) 8e- 8a-	.
=	=	=
*^	*	*
8r	4.AA-	(4f-X 4a- 4cc-X	[ f
(8A-L	.	.	.
8F-XJ)	.	8a- 8cc- 8ff-X	.
=	=	=	=
*	*	*^	*
8r	4.AA-	8.cc-XL	4f-X 4a-	>
(8A-L	.	.	.	.
.	.	16b-K	.	.
8F-XJ)	.	8a-J	8c-X 8f-	.
*	*	*v	*v	*
=	=	=	=
8r	4.AA-	4e-^ 4a- 4ccn	]
(8A-L	.	.	.
8E-J)	.	8c 8e- 8a-	.
=	=	=	=
8r	4.AA-	4.B-) 4.d- 4.e-	.
(8GL	.	.	.
8E-J)	.	.	.
=	=	=	=
8r	4.AA-	(4e-^ 4a- 4cc	.
(8A-L	.	.	.
8E-J)	.	8c 8e- 8a-	.
=	=	=	=
*	*	*^	*
8r	4.AA-	8.fL	4.c-X 4.dn	<
(8A-L	.	.	.	.
.	.	16gK	.	.
8FJ)	.	8a-J)	.	.
=	=	=	=	=
!	!	!LO:TX:b:i:t=rit.	!	!
8rBB	4.AA-	(4b-^	4.d-X 4.g	[
(8GL	.	.	.	.
8E-J)	.	8ee-)	.	>
=	=	=	=	=
8rBB	4.AA-	(4bn	4.d- 4.g	.
(8GL	.	.	.	.
8E-J)	.	8ee-)	.	.
*v	*v	*	*	*
*	*v	*v	*
=||	=||	=||
*-	*-	*-
!!!system-decoration: {(s1,s2)}
